Obsidian/actions/16s/kdenlive-show-audiothumb.svg

<svg height="16" viewBox="0 0 16 16" width="16" xmlns="http://www.w3.org/2000/svg"><path d="m5.9921875 3.0039062v4.2890626l-2.2226563-1.6953126v1.7949219l-3.7695312-.1875v1.5976563l3.7695312-.1875v1.7949216l2.2226563-1.6953122v4.2890622l3.4765625-4.2714841v1.1601562l2.193359-1.671875.013672-.0019531v3.396484l2.072266-3.021484v.9472656l2.251953-1.5371094-2.251953-1.5371093v.9472656l-2.072266-3.0214844v3.3964844l-.013672-.0019531-2.193359-1.671875v1.1601562z" fill="#bebebe"/></svg>

<svg xmlns="http://www.w3.org/2000/svg" width="16" height="16" viewBox="0 0 16 16">
 <defs>
  <style id="current-color-scheme" type="text/css">
   .ColorScheme-Text { color:#bebebe; } .ColorScheme-Highlight { color:#4285f4; }
  </style>
 </defs>
 <path style="fill:currentColor" class="ColorScheme-Text" d="M 5.9921875 3.0039062 L 5.9921875 7.2929688 L 3.7695312 5.5976562 L 3.7695312 7.3925781 L 0 7.2050781 L 0 8.8027344 L 3.7695312 8.6152344 L 3.7695312 10.410156 L 5.9921875 8.7148438 L 5.9921875 13.003906 L 9.46875 8.7324219 L 9.46875 9.8925781 L 11.662109 8.2207031 L 11.675781 8.21875 L 11.675781 11.615234 L 13.748047 8.59375 L 13.748047 9.5410156 L 16 8.0039062 L 13.748047 6.4667969 L 13.748047 7.4140625 L 11.675781 4.3925781 L 11.675781 7.7890625 L 11.662109 7.7871094 L 9.46875 6.1152344 L 9.46875 7.2753906 L 5.9921875 3.0039062 z"/>
</svg>
